; generated by PrusaSlicer 2.2.0+linux-x64 on 2020-03-31 at 15:30:00 UTC

; 

; external perimeters extrusion width = 0.40mm
; perimeters extrusion width = 0.40mm
; infill extrusion width = 0.60mm
; solid infill extrusion width = 0.40mm
; top infill extrusion width = 0.40mm
; first layer extrusion width = 0.60mm

; external perimeters extrusion width = 0.40mm
; perimeters extrusion width = 0.40mm
; infill extrusion width = 0.60mm
; solid infill extrusion width = 0.40mm
; top infill extrusion width = 0.40mm
; first layer extrusion width = 0.60mm

M190 S50 ; set bed temperature and wait for it to be reached
M104 S205 ; set temperature
M42 S1 ; enciende el LED
G4 P500;
M42 S0 ; apaga el LED
G4 P500;
M42 S1 ; enciende el LED
G4 P100;
M42 S0 ; apaga el LED
G4 P100;
M42 S1 ; enciende el LED
G4 P100;
M42 S0 ; apaga el LED
G4 P400;
M42 S1 ; enciende el LED

G28 ; home all axes
M109 S205 ; set temperature and wait for it to be reached
G21 ; set units to millimeters
G90 ; use absolute coordinates
M82 ; use absolute distances for extrusion
G92 E0
; Filament gcode
M106 S255
G1 E-3.00000 F6000.00000
G92 E0
G1 Z0.270 F10800.000
G1 Z0.300
G1 Z0.570
G1 X63.763 Y69.119
G1 Z0.300
G1 E3.20000 F6000.00000
M204 S1000
G1 F600.000
G1 X78.106 Y53.433 E4.56316
G1 X79.259 Y52.463 E4.65978
G1 X80.135 Y51.930 E4.72555
G1 X81.657 Y51.326 E4.83059
G1 X82.925 Y51.073 E4.91345
G1 X83.724 Y51.019 E4.96483
G1 X99.985 Y51.009 E6.00770
G1 X100.889 Y51.061 E6.06580
G1 X117.298 Y53.388 E7.12869
G1 X133.264 Y57.813 E8.19120
G1 X134.600 Y58.353 E8.28364
G1 X135.422 Y58.835 E8.34475
G1 X136.533 Y59.732 E8.43630
G1 X137.179 Y60.431 E8.49733
G1 X137.984 Y61.620 E8.58947
G1 X138.412 Y62.514 E8.65305
G1 X143.714 Y79.553 E9.79746
G1 X143.867 Y80.531 E9.86096
G1 X143.867 Y119.633 E12.36867
G1 X143.729 Y120.580 E12.43009
G1 X143.343 Y121.464 E12.49190
G1 X142.961 Y121.981 E12.53316
G1 X123.746 Y143.623 E14.38922
G1 X122.811 Y144.556 E14.47397
G1 X122.079 Y145.110 E14.53286
G1 X120.682 Y145.856 E14.63438
G1 X119.155 Y146.318 E14.73670
G1 X103.428 Y148.859 E15.75843
G1 X102.044 Y148.990 E15.84758
G1 X101.043 Y148.934 E15.91189
G1 X99.597 Y148.631 E16.00663
G1 X84.418 Y143.378 E17.03678
G1 X68.842 Y137.648 E18.10114
G1 X67.953 Y137.219 E18.16447
G1 X66.732 Y136.384 E18.25933
G1 X65.739 Y135.401 E18.34895
G1 X65.171 Y134.652 E18.40923
G1 X64.700 Y133.845 E18.46918
G1 X64.167 Y132.535 E18.55985
G1 X59.587 Y113.845 E19.79398
G1 X59.485 Y113.069 E19.84415
G1 X59.504 Y109.723 E20.05877
G1 X63.188 Y70.759 E22.56878
G1 X63.371 Y69.914 E22.62423
G1 X63.736 Y69.173 E22.67723
G1 X64.191 Y69.443 F10800.000
G1 F600.000
G1 X78.492 Y53.805 E24.03630
G1 X79.578 Y52.893 E24.12723
G1 X80.375 Y52.409 E24.18703
G1 X81.794 Y51.844 E24.28501
G1 X83.003 Y51.603 E24.36407
G1 X83.753 Y51.554 E24.41228
G1 X99.985 Y51.545 E25.45326
G1 X100.819 Y51.592 E25.50686
G1 X117.181 Y53.911 E26.56667
G1 X133.107 Y58.326 E27.62659
G1 X134.371 Y58.838 E27.71408
G1 X135.118 Y59.275 E27.76957
G1 X136.173 Y60.129 E27.85659
G1 X136.764 Y60.770 E27.91252
G1 X137.522 Y61.891 E27.99932
G1 X137.915 Y62.714 E28.05781
G1 X143.200 Y79.706 E29.19906
G1 X143.331 Y80.538 E29.25309
G1 X143.331 Y119.621 E31.75962
G1 X143.215 Y120.430 E31.81202
G1 X142.890 Y121.178 E31.86431
G1 X123.347 Y143.266 E33.75578
G1 X122.456 Y144.155 E33.83647
G1 X121.781 Y144.665 E33.89077
G1 X120.477 Y145.361 E33.98553
G1 X119.048 Y145.793 E34.08131
G1 X103.348 Y148.329 E35.10124
G1 X102.034 Y148.455 E35.18592
G1 X101.124 Y148.405 E35.24437
G1 X99.755 Y148.119 E35.33400
G1 X84.599 Y142.874 E36.36258
G1 X69.045 Y137.152 E37.42551
G1 X68.226 Y136.758 E37.48375
G1 X67.080 Y135.977 E37.57271
G1 X66.136 Y135.042 E37.65791
G1 X65.618 Y134.357 E37.71296
G1 X65.185 Y133.617 E37.76798
G1 X64.676 Y132.369 E37.85441
G1 X60.108 Y113.722 E39.08565
G1 X60.021 Y113.057 E39.12872
G1 X60.037 Y109.768 E39.33966
G1 X63.720 Y70.814 E41.84901
G1 X63.871 Y70.106 E41.89543
G1 X64.165 Y69.497 E41.93880
G1 E38.93880 F6000.00000
G92 E0
G1 Z0.570 F10800.000
G1 X126.453 Y65.981
G1 Z0.300
G1 E3.20000 F6000.00000
G1 F1650.000
G1 X126.432 Y65.540 E3.22831
G1 X126.453 Y65.099 E3.25663
G1 X126.518 Y64.663 E3.28493
G1 X126.625 Y64.235 E3.31322
G1 X126.774 Y63.819 E3.34158
G1 X126.963 Y63.419 E3.36990
G1 X127.190 Y63.041 E3.39823
G1 X127.453 Y62.686 E3.42657
G1 X127.749 Y62.358 E3.45486
G1 X128.076 Y62.063 E3.48315
G1 X128.431 Y61.799 E3.51149
G1 X128.810 Y61.572 E3.53981
G1 X129.209 Y61.384 E3.56814
G1 X129.625 Y61.234 E3.59649
G1 X130.054 Y61.127 E3.62479
G1 X130.490 Y61.063 E3.65309
G1 X130.931 Y61.041 E3.68140
G1 X131.372 Y61.063 E3.70972
G1 X131.808 Y61.127 E3.73802
G1 X132.236 Y61.234 E3.76631
G1 X132.653 Y61.384 E3.79467
G1 X133.052 Y61.572 E3.82299
G1 X133.431 Y61.799 E3.85132
G1 X133.786 Y62.063 E3.87966
G1 X134.113 Y62.358 E3.90795
G1 X134.409 Y62.686 E3.93624
G1 X134.672 Y63.041 E3.96458
G1 X134.899 Y63.419 E3.99290
G1 X135.087 Y63.819 E4.02123
G1 X135.237 Y64.235 E4.04958
G1 X135.344 Y64.663 E4.07788
G1 X135.409 Y65.099 E4.10618
G1 X135.430 Y65.540 E4.13449
G1 X135.409 Y65.981 E4.16281
G1 X135.344 Y66.418 E4.19111
G1 X135.237 Y66.846 E4.21940
G1 X135.087 Y67.262 E4.24776
G1 X134.899 Y67.661 E4.27608
G1 X134.672 Y68.040 E4.30441
G1 X134.409 Y68.395 E4.33275
G1 X134.113 Y68.722 E4.36104
G1 X133.786 Y69.018 E4.38933
G1 X133.431 Y69.281 E4.41767
G1 X133.052 Y69.509 E4.44599
G1 X132.653 Y69.697 E4.47432
G1 X132.236 Y69.846 E4.50267
G1 X131.808 Y69.953 E4.53097
G1 X131.372 Y70.018 E4.55927
G1 X130.931 Y70.040 E4.58758
G1 X130.490 Y70.018 E4.61590
G1 X130.054 Y69.953 E4.64420
G1 X129.625 Y69.846 E4.67249
G1 X129.209 Y69.697 E4.70085
G1 X128.810 Y69.509 E4.72917
G1 X128.431 Y69.281 E4.75750
G1 X128.076 Y69.018 E4.78584
G1 X127.749 Y68.722 E4.81413
G1 X127.453 Y68.395 E4.84242
G1 X127.190 Y68.040 E4.87076
G1 X126.963 Y67.661 E4.89908
G1 X126.774 Y67.262 E4.92741
G1 X126.625 Y66.846 E4.95576
G1 X126.518 Y66.418 E4.98406
G1 X126.462 Y66.041 E5.00851
G1 X126.778 Y65.748 F10800.000
G1 X126.987 Y65.929
G1 F1650.000
G1 X126.968 Y65.540 E5.03345
G1 X126.987 Y65.152 E5.05839
G1 X127.044 Y64.767 E5.08332
G1 X127.138 Y64.391 E5.10822
G1 X127.270 Y64.024 E5.13322
G1 X127.436 Y63.672 E5.15818
G1 X127.636 Y63.339 E5.18310
G1 X127.868 Y63.025 E5.20811
G1 X128.128 Y62.738 E5.23300
G1 X128.416 Y62.477 E5.25788
G1 X128.729 Y62.245 E5.28289
G1 X129.062 Y62.045 E5.30781
G1 X129.414 Y61.879 E5.33277
G1 X129.781 Y61.747 E5.35777
G1 X130.158 Y61.653 E5.38267
G1 X130.543 Y61.596 E5.40760
G1 X130.931 Y61.577 E5.43254
G1 X131.319 Y61.596 E5.45748
G1 X131.704 Y61.653 E5.48241
G1 X132.081 Y61.747 E5.50731
G1 X132.447 Y61.879 E5.53231
G1 X132.799 Y62.045 E5.55726
G1 X133.133 Y62.245 E5.58219
G1 X133.446 Y62.477 E5.60720
G1 X133.734 Y62.738 E5.63208
G1 X133.994 Y63.025 E5.65697
G1 X134.226 Y63.339 E5.68198
G1 X134.426 Y63.672 E5.70690
G1 X134.592 Y64.024 E5.73185
G1 X134.724 Y64.391 E5.75686
G1 X134.818 Y64.767 E5.78176
G1 X134.875 Y65.152 E5.80669
G1 X134.894 Y65.540 E5.83163
G1 X134.875 Y65.929 E5.85657
G1 X134.818 Y66.313 E5.88150
G1 X134.724 Y66.690 E5.90640
G1 X134.592 Y67.057 E5.93140
G1 X134.426 Y67.409 E5.95635
G1 X134.226 Y67.742 E5.98128
G1 X133.994 Y68.055 E6.00629
G1 X133.734 Y68.343 E6.03117
G1 X133.446 Y68.603 E6.05606
G1 X133.133 Y68.835 E6.08107
G1 X132.799 Y69.036 E6.10599
G1 X132.447 Y69.201 E6.13094
G1 X132.081 Y69.333 E6.15595
G1 X131.704 Y69.427 E6.18085
G1 X131.319 Y69.484 E6.20578
G1 X130.931 Y69.503 E6.23072
G1 X130.543 Y69.484 E6.25565
G1 X130.158 Y69.427 E6.28058
G1 X129.781 Y69.333 E6.30548
G1 X129.414 Y69.201 E6.33049
G1 X129.062 Y69.036 E6.35544
G1 X128.729 Y68.835 E6.38037
G1 X128.416 Y68.603 E6.40538
G1 X128.128 Y68.343 E6.43026
G1 X127.868 Y68.055 E6.45514
G1 X127.636 Y67.742 E6.48015
G1 X127.436 Y67.409 E6.50508
G1 X127.270 Y67.057 E6.53003
G1 X127.138 Y66.690 E6.55503
G1 X127.044 Y66.313 E6.57994
G1 X126.996 Y65.988 E6.60102
G1 E3.60102 F6000.00000
G92 E0
G1 Z0.570 F10800.000
G1 X128.676 Y65.540
G1 Z0.300
G1 E3.20000 F6000.00000
G1 F1650.000
G1 X128.720 Y65.100 E3.22836
G1 X128.848 Y64.677 E3.25671
G1 X129.057 Y64.287 E3.28506
G1 X129.337 Y63.947 E3.31337
G1 X129.678 Y63.666 E3.34167
G1 X130.068 Y63.458 E3.37003
G1 X130.490 Y63.330 E3.39830
G1 X130.866 Y63.289 E3.42256
G1 X131.149 Y63.298 E3.44073
G1 X131.378 Y63.331 E3.45555
G1 X131.794 Y63.458 E3.48344
G1 X132.184 Y63.666 E3.51180
G1 X132.525 Y63.947 E3.54010
G1 X132.805 Y64.287 E3.56841
G1 X133.013 Y64.677 E3.59676
G1 X133.142 Y65.101 E3.62514
G1 X133.185 Y65.540 E3.65346
G1 X133.142 Y65.980 E3.68179
G1 X133.013 Y66.403 E3.71016
G1 X132.805 Y66.793 E3.73852
G1 X132.525 Y67.134 E3.76682
G1 X132.184 Y67.414 E3.79513
G1 X131.794 Y67.623 E3.82348
G1 X131.371 Y67.751 E3.85183
G1 X130.931 Y67.795 E3.88019
G1 X130.491 Y67.751 E3.90855
G1 X130.068 Y67.623 E3.93690
G1 X129.678 Y67.414 E3.96525
G1 X129.337 Y67.134 E3.99356
G1 X129.057 Y66.793 E4.02186
G1 X128.848 Y66.403 E4.05022
G1 X128.720 Y65.980 E4.07856
G1 X128.682 Y65.600 E4.10307
G1 X128.330 Y65.340 F10800.000
G1 X128.143 Y65.593
G1 F1650.000
G1 X128.192 Y64.995 E4.14158
G1 X128.351 Y64.471 E4.17668
G1 X128.610 Y63.988 E4.21181
G1 X128.957 Y63.566 E4.24686
G1 X129.379 Y63.219 E4.28191
G1 X129.862 Y62.961 E4.31704
G1 X130.382 Y62.802 E4.35194
G1 X130.845 Y62.753 E4.38178
G1 X131.196 Y62.763 E4.40430
G1 X131.495 Y62.807 E4.42369
G1 X132.000 Y62.961 E4.45752
G1 X132.483 Y63.219 E4.49265
G1 X132.905 Y63.566 E4.52770
G1 X133.252 Y63.988 E4.56275
G1 X133.511 Y64.471 E4.59789
G1 X133.670 Y64.996 E4.63306
G1 X133.723 Y65.540 E4.66813
G1 X133.670 Y66.085 E4.70320
G1 X133.511 Y66.609 E4.73837
G1 X133.252 Y67.092 E4.77351
G1 X132.905 Y67.515 E4.80856
G1 X132.483 Y67.862 E4.84361
G1 X132.000 Y68.120 E4.87874
G1 X131.476 Y68.279 E4.91384
G1 X130.931 Y68.333 E4.94899
G1 X130.386 Y68.279 E4.98414
G1 X129.862 Y68.120 E5.01924
G1 X129.379 Y67.862 E5.05437
G1 X128.957 Y67.515 E5.08942
G1 X128.610 Y67.092 E5.12447
G1 X128.351 Y66.609 E5.15961
G1 X128.192 Y66.086 E5.19470
G1 X128.149 Y65.653 E5.22259
G1 X127.553 Y65.540 F10800.000
G1 F1200.000
G1 X127.554 Y65.509 E5.22496
G1 X127.618 Y64.881 E5.27277
G1 X127.625 Y64.850 E5.27521
G1 X127.810 Y64.248 E5.32297
G1 X127.824 Y64.219 E5.32536
G1 X128.122 Y63.664 E5.37312
G1 X128.142 Y63.638 E5.37561
G1 X128.326 Y63.401 E5.39890
G1 X128.522 Y63.174 E5.42210
G1 X128.542 Y63.152 E5.42444
G1 X128.565 Y63.131 E5.42677
G1 X129.054 Y62.731 E5.47465
G1 X129.080 Y62.716 E5.47690
G1 X129.638 Y62.420 E5.52478
G1 X129.667 Y62.409 E5.52710
G1 X130.272 Y62.227 E5.57503
G1 X130.295 Y62.224 E5.57679
G1 X130.601 Y62.185 E5.60061
G1 X130.801 Y62.169 E5.61617
G1 X130.844 Y62.167 E5.61945
G1 X130.931 Y62.167 E5.62612
G1 X131.229 Y62.178 E5.64904
G1 X131.262 Y62.180 E5.65154
G1 X131.266 Y62.181 E5.65186
G1 X131.589 Y62.229 E5.67680
G1 X131.600 Y62.231 E5.67764
G1 X131.646 Y62.242 E5.68123
G1 X132.224 Y62.420 E5.72702
G1 X132.252 Y62.433 E5.72940
G1 X132.807 Y62.731 E5.77717
G1 X132.834 Y62.751 E5.77965
G1 X133.070 Y62.936 E5.80295
G1 X133.297 Y63.131 E5.82615
G1 X133.320 Y63.152 E5.82848
G1 X133.340 Y63.174 E5.83082
G1 X133.740 Y63.664 E5.87869
G1 X133.755 Y63.689 E5.88094
G1 X134.052 Y64.248 E5.92883
G1 X134.062 Y64.276 E5.93114
G1 X134.244 Y64.881 E5.97903
G1 X134.249 Y64.913 E5.98147
G1 X134.285 Y65.210 E6.00467
G1 X134.307 Y65.510 E6.02800
G1 X134.309 Y65.540 E6.03031
G1 X134.307 Y65.571 E6.03263
G1 X134.244 Y66.199 E6.08048
G1 X134.237 Y66.229 E6.08280
G1 X134.052 Y66.833 E6.13068
G1 X134.038 Y66.862 E6.13306
G1 X133.740 Y67.417 E6.18083
G1 X133.720 Y67.443 E6.18331
G1 X133.536 Y67.680 E6.20661
G1 X133.340 Y67.906 E6.22981
G1 X133.320 Y67.929 E6.23215
G1 X133.297 Y67.950 E6.23448
G1 X132.807 Y68.349 E6.28236
G1 X132.782 Y68.364 E6.28461
G1 X132.224 Y68.661 E6.33249
G1 X132.195 Y68.671 E6.33481
G1 X131.590 Y68.854 E6.38271
G1 X131.560 Y68.858 E6.38497
G1 X130.931 Y68.919 E6.43285
G1 X130.900 Y68.917 E6.43523
G1 X130.272 Y68.854 E6.48303
G1 X130.241 Y68.846 E6.48547
G1 X129.638 Y68.661 E6.53324
G1 X129.610 Y68.648 E6.53562
G1 X129.054 Y68.349 E6.58338
G1 X129.028 Y68.330 E6.58587
G1 X128.792 Y68.145 E6.60916
G1 X128.565 Y67.950 E6.63236
G1 X128.542 Y67.929 E6.63470
G1 X128.522 Y67.906 E6.63704
G1 X128.122 Y67.417 E6.68491
G1 X128.107 Y67.391 E6.68716
G1 X127.810 Y66.833 E6.73505
G1 X127.800 Y66.804 E6.73736
G1 X127.618 Y66.199 E6.78526
G1 X127.613 Y66.170 E6.78752
G1 X127.556 Y65.600 E6.83087
G1 E3.83087 F6000.00000
G92 E0
G1 Z0.570 F10800.000
G1 X111.163 Y61.345
G1 Z0.300
G1 E3.20000 F6000.00000
G1 F1650.000
G1 X111.182 Y60.850 E3.23181
G1 X111.246 Y60.413 E3.26011
G1 X111.353 Y59.985 E3.28841
G1 X111.503 Y59.569 E3.31677
G1 X111.691 Y59.170 E3.34509
G1 X111.919 Y58.791 E3.37342
G1 X112.182 Y58.436 E3.40176
G1 X112.477 Y58.109 E3.43005
G1 X112.805 Y57.813 E3.45834
G1 X113.160 Y57.550 E3.48668
G1 X113.538 Y57.322 E3.51500
G1 X113.938 Y57.134 E3.54333
G1 X114.354 Y56.985 E3.57168
G1 X114.782 Y56.878 E3.59998
G1 X115.219 Y56.813 E3.62828
G1 X115.659 Y56.791 E3.65659
G1 X116.100 Y56.813 E3.68490
G1 X116.537 Y56.878 E3.71320
G1 X116.965 Y56.985 E3.74150
G1 X117.381 Y57.134 E3.76986
G1 X117.781 Y57.322 E3.79818
G1 X118.159 Y57.550 E3.82651
G1 X118.514 Y57.813 E3.85485
G1 X118.841 Y58.109 E3.88314
G1 X119.137 Y58.436 E3.91143
G1 X119.400 Y58.791 E3.93977
G1 X119.628 Y59.170 E3.96809
G1 X119.816 Y59.569 E3.99642
G1 X119.965 Y59.985 E4.02477
G1 X120.072 Y60.413 E4.05307
G1 X120.137 Y60.850 E4.08137
G1 X120.159 Y61.291 E4.10968
G1 X120.137 Y61.732 E4.13800
G1 X120.072 Y62.168 E4.16629
G1 X119.965 Y62.596 E4.19459
G1 X119.816 Y63.012 E4.22295
G1 X119.628 Y63.412 E4.25127
G1 X119.400 Y63.790 E4.27960
G1 X119.137 Y64.145 E4.30794
G1 X118.841 Y64.473 E4.33623
G1 X118.514 Y64.768 E4.36452
G1 X118.159 Y65.032 E4.39286
G1 X117.781 Y65.259 E4.42118
G1 X117.381 Y65.447 E4.44951
G1 X116.965 Y65.597 E4.47786
G1 X116.537 Y65.704 E4.50616
G1 X116.100 Y65.768 E4.53446
G1 X115.659 Y65.790 E4.56277
G1 X115.219 Y65.768 E4.59109
G1 X114.782 Y65.704 E4.61939
G1 X114.354 Y65.597 E4.64768
G1 X113.938 Y65.447 E4.67604
G1 X113.538 Y65.259 E4.70436
G1 X113.160 Y65.032 E4.73269
G1 X112.805 Y64.768 E4.76103
G1 X112.477 Y64.473 E4.78932
G1 X112.182 Y64.145 E4.81761
G1 X111.919 Y63.790 E4.84595
G1 X111.691 Y63.412 E4.87427
G1 X111.503 Y63.012 E4.90260
G1 X111.353 Y62.596 E4.93095
G1 X111.246 Y62.168 E4.95925
G1 X111.182 Y61.732 E4.98755
G1 X111.166 Y61.405 E5.00850
G1 X111.507 Y61.143 F10800.000
G1 X111.698 Y61.319
G1 F1650.000
G1 X111.715 Y60.902 E5.03526
G1 X111.772 Y60.518 E5.06019
G1 X111.867 Y60.141 E5.08509
G1 X111.998 Y59.774 E5.11010
G1 X112.164 Y59.422 E5.13505
G1 X112.364 Y59.089 E5.15997
G1 X112.597 Y58.776 E5.18498
G1 X112.857 Y58.488 E5.20987
G1 X113.145 Y58.228 E5.23475
G1 X113.458 Y57.996 E5.25976
G1 X113.791 Y57.795 E5.28469
G1 X114.143 Y57.630 E5.30964
G1 X114.510 Y57.498 E5.33464
G1 X114.887 Y57.404 E5.35954
G1 X115.271 Y57.347 E5.38447
G1 X115.659 Y57.328 E5.40941
G1 X116.048 Y57.347 E5.43435
G1 X116.432 Y57.404 E5.45928
G1 X116.809 Y57.498 E5.48418
G1 X117.176 Y57.630 E5.50919
G1 X117.528 Y57.795 E5.53414
G1 X117.861 Y57.996 E5.55906
G1 X118.174 Y58.228 E5.58407
G1 X118.462 Y58.488 E5.60896
G1 X118.722 Y58.776 E5.63384
G1 X118.955 Y59.089 E5.65885
G1 X119.155 Y59.422 E5.68378
G1 X119.321 Y59.774 E5.70873
G1 X119.452 Y60.141 E5.73373
G1 X119.547 Y60.518 E5.75863
G1 X119.604 Y60.902 E5.78356
G1 X119.623 Y61.291 E5.80850
G1 X119.604 Y61.679 E5.83344
G1 X119.547 Y62.064 E5.85837
G1 X119.452 Y62.440 E5.88327
G1 X119.321 Y62.807 E5.90827
G1 X119.155 Y63.159 E5.93323
G1 X118.955 Y63.492 E5.95815
G1 X118.722 Y63.806 E5.98316
G1 X118.462 Y64.093 E6.00804
G1 X118.174 Y64.354 E6.03293
G1 X117.861 Y64.586 E6.05794
G1 X117.528 Y64.786 E6.08286
G1 X117.176 Y64.952 E6.10782
G1 X116.809 Y65.084 E6.13282
G1 X116.432 Y65.178 E6.15772
G1 X116.048 Y65.235 E6.18265
G1 X115.659 Y65.254 E6.20759
G1 X115.271 Y65.235 E6.23253
G1 X114.887 Y65.178 E6.25746
G1 X114.510 Y65.084 E6.28236
G1 X114.143 Y64.952 E6.30736
G1 X113.791 Y64.786 E6.33231
G1 X113.458 Y64.586 E6.35724
G1 X113.145 Y64.354 E6.38225
G1 X112.857 Y64.093 E6.40713
G1 X112.597 Y63.806 E6.43202
